assets/spark/icons/HomeFill.svg

<svg viewBox="0 0 24 24" xmlns="http://www.w3.org/2000/svg">
    <path d="M21.7386 11.5L12.4939 2.25C12.1608 1.91667 11.7444 1.91667 11.4112 2.25L2.24986 11.5C1.91671 11.8333 1.91671 12.25 2.24986 12.5833C2.583 12.9167 2.99942 12.9167 3.33256 12.5833L4.66513 11.1667V21.1667C4.66513 21.5 4.91499 21.8333 5.24813 21.9167C5.33141 21.9167 5.49798 22 5.58127 22H18.4072C18.4905 22 18.6571 22 18.7403 21.9167C19.1568 21.9167 19.4899 21.5833 19.4899 21.1667V11.25L20.7392 12.5C21.0723 12.8333 21.4888 12.8333 21.8219 12.5C22.0718 12.25 22.0718 11.75 21.7386 11.5Z"/>
</svg>

<svg viewBox="0 0 24 24" xmlns="http://www.w3.org/2000/svg">
  <path d="m21.74,11.5L12.49,2.25c-.33-.33-.75-.33-1.08,0L2.25,11.5c-.33.33-.33.75,0,1.08.33.33.75.33,1.08,0l1.33-1.42v10c0,.33.25.67.58.75.08,0,.25.08.33.08h12.83c.08,0,.25,0,.33-.08.42,0,.75-.33.75-.75v-9.92l1.25,1.25c.33.33.75.33,1.08,0,.25-.25.25-.75-.08-1Z"/>
</svg>
